!!!OTL: 142. Das Maedchen und der schwarze Ritter.
!!!ODT: 1818 (Mel.)
!!!ARE: Europa, Mitteleuropa, Deutschland
!!!SCT: B0142
!!!TXL: @@DE
!!!YEM: Copyright 1995, estate of Helmut Schaffrath.
**kern	**text
*ICvox	*
*Ivox	*
*M6/8	*
*clefG2	*
*k[f#]	*
*G:	*
!LO:TX:a:t=Mäßig langſam.	!
{8d	Es
=1	=1
4g	ritt
8g	ein
8a	Rit-
8g	-ter
8a	wohl
=2	=2
4b	ü-
8cc	-ber
4dd}	Feld,
{8dd	er
=3	=3
8ddL	hatt'
8ccJ	.
8b	kein'
4a	Freund,
8a	kein
=4	=4
8bL	Gut,
8aJ	.
8b/	kein
4cc}	Geld,
{8dd	ſein
=5	=5
8eeL	Schwe-
8ddJ	.
8cc	-ſter-
4b	-lein
8b	war
=6	=6
8ccL	hübſch
8bJ	.
8cc	und
=	=
4dd;}	fein.
{8dd	Ach,
=7	=7
4b	Schweſter-
8b	.
4a	-lein,
8b	ich
=8	=8
8.cc	ſag
16dd	dir
8cc	Leb-
4b/}	-wohl,
{8g	ich
=9	=9
4ee	ſe-
8ee	-he
4dd	dich
8b	ja
=10	=10
8ddL	nim-
8ccJ	.
8cc	-mer-
4a;}	-mehr.
=||	=||
{8d	Ich
=11	=11
4g	rei-
8g	-te
8a	weg
8g	in
8a	ein
=12	=12
4b	frem-
8cc	-des
4dd}	Land,
{8dd	reich
=13	=13
8ddL	du
8ccJ	.
8b	mir
8ccL	dei-
8bJ	.
8a	-ne
=14	=14
4b	wei-
8a	-ße
4g}	Hand!"
==	==
!!!AGN: Ballade, Romanze
!!!GTL: Balladen und Romanzen
!!!ONB: ESAC (Essen Associative Code) Database: BOEHME
!!!AMT: compound duple
!!!AIN: vox
!!!EED: Helmut Schaffrath
!!!EEV: 1.0
!!@@COMMENT:"Gedicht aus Heinrich Jung-Stilling's Jugend- und Jünglingsjahrem. Baſel und Leipʒig,
!!1806 S. 64. [...] Dieſe Ballade und auch die andern von Jung-Stilling, der vom Schneidergeſellen bis ʒum Heidelberger
!!Proſeſſor und Hofrath avancirte, ſind durchaus keine Volkslieder, für die man ſie lange gehal-
!!ten hat."
!!@@END:
!!!Text: H. Jung-Stillin
!!!URL-scan: https://archive.org/details/BoehmeVtLieder1895/page/n143/mode/2up
!!!ENC: Anna Maria Matuszewska
!!!EEV: 2024/18/06
*-	*-
